modules/themify-icons/icons/layout-cta-btn-right.svg

<?xml version="1.0" encoding="utf-8"?>
<!-- Generated by IcoMoon.io -->
<!DOCTYPE svg PUBLIC "-//W3C//DTD SVG 1.1//EN" "http://www.w3.org/Graphics/SVG/1.1/DTD/svg11.dtd">
<svg version="1.1" xmlns="http://www.w3.org/2000/svg" xmlns:xlink="http://www.w3.org/1999/xlink" width="17" height="17" viewBox="0 0 17 17">
<g>
</g>
	<path d="M9 7h-7v-1h7v1zM3.993 9h5v-1h-5v1zM17 3v10h-17v-10h17zM16 4h-15v8h15v-8zM15 6h-5v2h5v-2z" fill="#000000" />
</svg>

<svg xmlns="http://www.w3.org/2000/svg" width="17" height="17" viewBox="0 0 17 17"><path d="M9 7H2V6h7v1zM3.993 9h5V8h-5v1zM17 3v10H0V3h17zm-1 1H1v8h15V4zm-1 2h-5v2h5V6z"/></svg>
